X:1
T:Title
%%score { ( 1 3 ) | ( 2 4 ) }
L:1/8
M:4/4
K:C
V:1 treble nm="Grand Piano"
V:3 treble 
V:2 bass 
V:4 bass 
V:1
 z4 z2[Q:1/4=100] G2 | G6 z2 | A6 z2 | [Ec]2 [EB]2 [EA]2 [Ec]2 | B2 g2 g2 G2 | G6 z2 | A6 z2 | %7
 d2 ^c2 d2 e2 | E2- [E-g]2 [Eg]2 G2 | G6 z2 | A6 z2 | e2 e2 f2 e2 | F2- [F-f]2 [Ff]2 A2 | %13
 d2 c2 B2 A2 | c2 A2 G2 E2 | G4 G4 |[M:3/4] G6 |[M:1/4] G2 |[M:4/4] [CEc]4 [CEG]2 [CEG]2 | %19
 [A,CEA]4 [A,CE]2 E2 | F3 G A2 B2 | c6 c2 | d4 G2 G2 | [Ge]4 [CEc]2 [CEc]2 | %24
 [DGB]3 [EGc] [DGB]2 [C^FA]2 | [B,G]6 z2 | [GBdf]2 [Bdf]2 [GBdf]2 [GBdf]2 | %27
 [Gce]2 [ce]2 [Gce]2 z2 | [Fd]4 z4 | [Ge]4 z4 | [Ge]4 [Gd]2 [Gc]2 | z4 e2 z2 | [EGc]4 [DFB]4 | %33
 [CEc]6 c2 | c2 [EGce]>[EGce] [EGce]2 c2 | c2 [Acf]>[Acf] [Acf]2 [Cc]2 | [FAc]4 [Acd]4 | %37
[M:3/4] [EGce]6 |] %38
V:2
 z8 | z2 [C,C]2 [C,C]2 z2 | z2 [C,C]2 [C,C]2 [C,C]2 | [C,C]2 [C,C]2 [C,C]2 [C,C]2 | %4
 z2 [GB]2 [GB]2 z2 | z2 [G,B,]2 [G,B,]2 z2 | z2 [G,B,]2 [G,B,]2 [G,B,F]2 | %7
 [G,B,F]2 [G,_B,E]2 [G,=B,F]2 [G,B,F]2 | z2[K:treble] [Gce]2 [Gce]2 z2 | %9
 z2[K:bass] [C,C]2 [C,C]2 z2 | z2 [C,C]2 [C,C]2 [C,C]2 | [A,CG]2 [A,CG]2 [A,CA]2 [A,CG]2 | %12
 z2 [Ad]2 [Ad]2[K:bass] A,2 | [F,A,F]2 [F,A,F]2 [^F,A,_E]2 [F,CE]2 | %14
 [G,CE]2 [G,CE]2 [G,CE]2 [G,C]2 | [G,CE]4 [G,_B,^CE]4 |[M:3/4] [G,B,DF]6 |[M:1/4][K:bass] G,2 | %18
[M:4/4] C,4 C,2 C,2 | A,,4 A,,2 E,2 | F,3 G, A,2 B,2 | C6 C2 | [G,B,G]4 [G,B,]2 [G,B,]2 | %23
 [C,C]4 A,2 A,2 | D,3 D, D,2 D,2 | G,6 G,2 | z2[K:treble] G2 A,2 B,2 | z2 G2 G,2 G2 | %28
 G,,2 G,2[K:treble] [G,B,E]2 [G,B,F]2 | C,2 G,2 [G,CE]2 G,2 | [C,C]4 [D,B,]2 [E,C]2 | %31
 [F,CF]2 [D,D]2 [E,^C]2 F,2 | G,4 G,4 | C,6 C2 | C2 [C,C]>[C,C] [C,C]2 C2 | %35
 C2 [F,CF]>[F,CF] [F,CF]2 z2 | [F,A,C]4 [F,A,CF]4 |[M:3/4] [C,G,C]6 |] %38
V:3
 x8 | z2 E2 E2 A2 | z2 E2 E2 [EG]2 | x8 | x8 | z2 F2 F2 A2 | z2 F2 F2 d2 | x8 | G2 z2 z4 | %9
 z2 E2 E2 A2 | z2 E2 E2 [EG]2 | x8 | A2 z2 z4 | x8 | x8 | x8 |[M:3/4] x6 |[M:1/4] x2 |[M:4/4] x8 | %19
 x8 | x8 | x8 | x8 | x8 | x8 | x8 | x8 | x8 | z2 B,2 ^c2 d2 | z2 C2 c2 G2 | x8 | %31
 A2 [Af]2 A2- [DAd]2 | x8 | x8 | x8 | x8 | x8 |[M:3/4] x6 |] %38
V:4
 x8 | x8 | x8 | x8 | [G,DF]6 z2 | x8 | x8 | x8 | [C,C]6[K:treble] z2 | x2[K:bass] x6 | x8 | x8 | %12
 [D,D]6[K:bass] z2 | x8 | x8 | x8 |[M:3/4] x6 |[M:1/4][K:bass] x2 |[M:4/4] x8 | x8 | x8 | x8 | x8 | %23
 x8 | x8 | x8 | G,4[K:treble] z4 | C4 z4 | x4[K:treble] x4 | x8 | x8 | x8 | x8 | x8 | x8 | x8 | %36
 x8 |[M:3/4] x6 |] %38

